16x16/apps/wxglade.svg

<svg height="16" width="16" xmlns="http://www.w3.org/2000/svg"><path d="m16 15.2v-14.4c0-.443-.357-.8-.8-.8h-11.336l-1.593 1.611c-.311.315-.943.184-1.185.555l-1.086 1.669v11.365c0 .443.357.8.8.8h14.4c.443 0 .8-.357.8-.8z" fill="#ccc"/><path d="m2.376 2.137c-.245.369-1.332-.154-1.535.24l-.841 1.623h16v-3.2c0-.443-.357-.8-.8-.8h-11.406z" fill="#f4f4f7"/><path d="m2.271 1.296c-.355.266-1.028.42-1.255.8l-1.016 1.704v11.4c0 .443.357.8.8.8h3.2v-16zm11.729 2.704v12h1.2c.443 0 .8-.357.8-.8v-11.2z" fill="#f4f4f7"/><path d="m.8 0c-.443 0-.8.357-.8.8v3.2h4v-4z" fill="#d32626"/><path d="m4 13h7v3h-7z" fill="#ffd000"/><path d="m11 13h3v3h-3z" fill="#0fa925"/><path d="m14 4h2v2h-2z" fill="#1268c9"/></svg>

<svg xmlns="http://www.w3.org/2000/svg" width="16" height="16" version="1"><path style="fill:#ccc" d="M16 15.2V.8c0-.443-.357-.8-.8-.8H3.864L2.271 1.611c-.311.315-.943.184-1.185.555L0 3.835V15.2c0 .443.357.8.8.8h14.4c.443 0 .8-.357.8-.8z"/><path style="fill:#f4f4f7" d="M2.376 2.137c-.245.369-1.332-.154-1.535.24L0 4h16V.8c0-.443-.357-.8-.8-.8H3.794z"/><path style="fill:#f4f4f7" d="M2.271 1.296c-.355.266-1.028.42-1.255.8L0 3.8v11.4c0 .443.357.8.8.8H4V0zM14 4v12h1.2c.443 0 .8-.357.8-.8V4z"/><path style="fill:#d32626" d="M.8 0C.357 0 0 .357 0 .8V4h4V0z"/><path style="fill:#ffd000" d="M4 13h7v3H4z"/><path style="fill:#0fa925" d="M11 13h3v3h-3z"/><path style="fill:#1268c9" d="M14 4h2v2h-2z"/></svg>
